server/website/public/icons/base/home.svg

<svg width="48" height="48" viewBox="0 0 48 48" fill="none" xmlns="http://www.w3.org/2000/svg">
<path d="M18.7769 42.4182V29.5092H29.2116V42.4182C29.2116 43.8382 30.3855 45 31.8202 45H39.6462C41.081 45 42.2549 43.8382 42.2549 42.4182V24.3455H46.6897C47.8897 24.3455 48.4636 22.8739 47.5505 22.0994L25.742 2.65836C24.7507 1.78055 23.2377 1.78055 22.2464 2.65836L0.437871 22.0994C-0.449078 22.8739 0.0987433 24.3455 1.29873 24.3455H5.73348V42.4182C5.73348 43.8382 6.90738 45 8.34215 45H16.1682C17.603 45 18.7769 43.8382 18.7769 42.4182Z" fill="black"/>
</svg>

<svg width="48" height="48" fill="none" xmlns="http://www.w3.org/2000/svg"><path d="M18.777 42.418V29.51h10.435v12.91c0 1.42 1.174 2.581 2.608 2.581h7.826c1.435 0 2.609-1.162 2.609-2.582V24.346h4.435c1.2 0 1.774-1.472.86-2.247L25.742 2.66a2.65 2.65 0 00-3.496 0L.438 22.098c-.887.775-.34 2.247.86 2.247h4.435v18.072c0 1.42 1.174 2.582 2.61 2.582h7.825c1.435 0 2.609-1.162 2.609-2.582z" fill="#000"/></svg>
